X: 505
T: Can ile Ben
C: Şakir Ağa
O: Turkey
F: http://compmusic.upf.edu/node/140
N: hicazkar--sarki--agirduyek--can_ile_ben--sakir_aga
N: makam= hicazkar
N: form= sarki
N: usul= agirduyek = 8/4
M: 8/4
L: 1/16
K: C _1/4B _7/8e _7/8A ^f
Q: 1/4=60
%%MIDI tuningsystem comma53
g4 f2a2 aggf g4 e3d c2d2 e2f2 eddc  | \
w:   | 
cBc4=fg f=ef4gf g2_e3dc^f edd8df _7/8eddc cBc4dc d2z2 e4 g2f2 g2a2  | 
w:   | 
b2ag f2g6 def4ed cde4dc dcBA  | G4 g4 f2a2 aggf g4 g3=f e2g2 f2g2  | 
w:   |   | 
=f2e2 ag^fe d2e2 d2e2 d2e2 fga4gf feed  | 
w:   | 
dccB c2=f2 e2d2 c3B A2B2 z2e2 d2c2 BAAG  | \
w:   | 
G4 z2c2 B2A2 G3F E2F2 G6Bc dcBc  | 
w:   | 
d4 c4 d4 d2B2 c2d2 edef d2c2 B3A  | \
w:   | 
G4 d4 e4 e4 d2e2 f2ga g2f2 feed  | 
w:   | 
dccB c4 =fgfe f4 gfg2 z2e2 d2c2 B2c2  | \
w:   | 
d2B2 c6d2 e2c2 d2B2 c2e2 d2c2 B2A2  | 
w:   | 
G4 c4 d4 d2B2 c2d2 edef d2c2 B3A  | \
w:   | 
G4 d4 e4 e4 d2e2 f2ga g2f2 feed  | 
w:   | 
dccB c4 =fgfe f4 gfg2 z2e2 d2c2 B2c2  | \
w:   | 
d2B2 c6d2 e2c2 d2B2 c2G2 A2B2 c2d2  | 
w:   | 
e2f2 g4 f2a2 aggf g4 g3=f e2g2 f2g2  | \
w:   | 
=f2e2 ag^fe d2e2 d2e2 d2e2 fga4gf feed  | 
w:   | 
dccB c2=f2 e2d2 c3B A2B2 z2e2 d2c2 BAAG  | \
w:   | 
G4 z2c2 B2A2 G3F E2F2 G6Bc dcBc  | 
w:   | 
d4 c4 d4 d2B2 c2d2 edef d2c2 B3A  | \
w:   | 
G4 d4 e4 e4 d2e2 f2ga g2f2 feed  | 
w:   | 
dccB c4 =fgfe f4 gfg2 z2e2 d2c2 B2c2  | \
w:   | 
d2B2 c6d2 e2c2 d2B2 c2e2 d2c2 B2A2  | 
w:   | 
G4 c4 d4 d2B2 c2d2 edef d2c2 B3A  | \
w:   | 
G4 d4 e4 e4 d2e2 f2ga g2f2 feed  | 
w:   | 
dccB c4 =fgfe f4 gfg2 z2e2 d2c2 B2c2  | \
w:   | 
d2B2 c6d2 e2c2 d2B2 c2G2 A2B2 c2d2  | 
w:   | 
e2f2 GAB4AG G4 G2z2 GAB4AG G4  | G2z2 G2c2 B2cd c2de d2ef e2fg fgb_a gfed  | 
w:   |   | 
cBAG G2c2 B2cd c2de d2ef e2fg fgb_a gfef  | 
w:   | 
g2z2 b_agf e3/2d/c2 (3Bcd(3fed e2z2 (3Bcd(3edc (3Bcd(3edc BAAG  | 
w:   | 
G2z2 g4 f2a2 aggf g4 e3d c2d2 e2f2  | \
w:   | 
eddc cBc4=fg f=ef4gf g2_e3dc^f edd8df _7/8eddc cBc4dc d2z2 e4 g2f2  | 
w:   | 
g2a2 b2ag f2g6 def4ed cde4dc  | dcBA G4 g4 f2a2 aggf g4 g3=f e2g2  | 
w:   |   | 
=f2g2 f2e2 ag^fe d2e2 d2e2 d2e2 fga4gf  | \
w:   | 
feed dccB c2=f2 e2d2 c3B A2B2 z2e2 d2c2  | 
w:   | 
BAAG G4 z2c2 B2A2 G3F E2F2 G6Bc  | \
w:   | 
dcBc d4 c4 d4 d2B2 c2d2 edef d2c2  | 
w:   | 
B3A G4 d4 e4 e4 d2e2 f2ga g2f2  | \
w:   | 
feed dccB c4 =fgfe f4 gfg2 z2e2 d2c2  | 
w:   | 
B2c2 d2B2 c6d2 e2c2 d2B2 c2e2 d2c2  | \
w:   | 
B2A2 G4 c4 d4 d2B2 c2d2 edef d2c2  | 
w:   | 
B3A G4 d4 e4 e4 d2e2 f2ga g2f2  | \
w:   | 
feed dccB c4 =fgfe f4 gfg2 z2e2 d2c2  | 
w:   | 
B2c2 d2B2 c6d2 e2c2 d2B2 c2G2 A2B2  | \
w:   | 
c2d2 e2f2 GAB4AG G4 G2z2 G2c2 B2cd  | 
w:   | 
c2de d2ef e2fg fgb_a gfed cBAG gfef g2z2  | 
w:   | 
b_agf e3/2d/c2 (3Bcd(3fed e2z2 (3Bcd(3edc (3Bcd(3edc BAAG G2z2  | 
w:   | 
|


